!!!COM: Robert Franz
!!!CNT: Deutscher
!!!TXO: Deutsche 
!!!OTL: "Lieber Schatz, sei wieder gut mir"
!!!OPS: Op. 26
!!!ONM: No. 2
!!!ONB: Original key: g minor
!!!LYR: W. Osterwald
!!!ENC: Brian Bice
!!!YOR: Vocal Album, G. Schirmer, Inc., 1907
!!!ODT: 1870/
!!NB: Vocal melody and text only encoded.
**kern	**silbe
*clefG2	*
*k[b-e-a-d-]	*
*M3/4	*
=1	=1
4r	.
4r	.
{8.d-	{In
16e-	dem
=2	=2
4f	Dorn-
4a-	-busch
8.a-	blu2ht
16g	ein
=3	=3
4f	Ro2s-
8c}	-lein,}
8r	.
{8.f	{ist
16g	ein'
=4	=4
4a-	Lust,
4cc	es
8.cc	an-
16b-	-zu-
=5	=5
4.a-}	-seh'n!}
8r	.
{8.a-	{Wollt'
16b-	es
=6	=6
4cc	pflu2-
4ee-	-cken,
8.ee-	mich
16ddn	zu
=7	=7
4cc	schu2-
8g}	-cken,}
8r	.
{8.cc	{doch
16b-	der
=8	=8
4a-	Dorn
4g	la2sst's
8.f	nicht
16en	ge-
=9	=9
4.f}	-scheh'n}
8r	.
4r	.
=10	=10
4r	.
4r	.
{8.d-	{Sang
16e-	ein
=11	=11
4f	Vo2g-
4a-	-lein
8.a-	in
16g	den
=12	=12
4f	Lu2f-
8c}	-ten,}
8r	.
{8.f	{klang
16g	der
=13	=13
4a-	Sang
4cc	su2ss
8.cc	in's
16b-	Ge-
=14	=14
4.a-}	-mu2th:}
8r	.
{8.a-	{"Willst
16b-	du
=15	=15
4cc	bre-
4ee-	-chen,
8.ee-	lass
16ddn	dich
=16	=16
4cc	ste-
8g}	-chen,}
8r	.
{8.cc	{oh-
16b-	-ne
=17	=17
4a	Dorn
4g	kein
8.f	Ro2s-
16en	-lein
=18	=18
4.f}	blu2ht".}
8r	.
4r	.
=19	=19
4r	.
4r	.
{8.d-	{Lie-
16e-	-ber
=20	=20
4f	Schatz,
4a-	sei
8.a-	wie-
16g	-der
=21	=21
4f	gut
4c	mir,
8.f	lie-
16g	-ber
=22	=22
4a-	Schatz,
4cc	leg'
8.b-	ab
16b-	dein'
=23	=23
4.a-}	Zorn:}
8r	.
{8.cc	{im-
16ee-	-mer
=24	=24
4ddn	Schmol-
8cc	-len,
8r	.
8.bn	im-
16dd	-mer
=25	=25
4cc	Grol-
8b-}	-len,}
8r	.
{8a-	{fu2r
8g	ein'
=26	=26
(4f	Ros'
8cc)	|
(8b-	wa2r's
8a-	zu
8g-)	viel
=27	=27
4.f}	Dorn!}
8r;	.
4r	.
*-	*-
